X:007
T: Bannocks of Barley Meal
N: O'Farrell's Pocket Companion v.1 (Sky ed. p.15)
M: 3/4
R: waltz
L: 1/4
Q: 150
K: G
G G B | A A/c/B/A/ | G G/A/B/c/ | d f g :|
g d B | A f/g/a/g/ | g d B | g>a g//a//b/ |
e g/e/d/B/ | d A/c/B/A/| G G/A/B/c/| d f g :|
